!!!!SEGMENT: pl-gd--ee-2628--006-018_stabile-annibale--il-terzo-libro-de-madrigali-a-cinque-voci-vieni-candida-aurora.krn
!!!cenid: 15xx:1085
!!!COM: Stabile, Annibale
!!!COM-rismID: pe30009662
!!!CDT: ~1535-1595/04
!!!CNT: Italian
!!!GTL: Il terzo libro de madrigali a cinque voci
!!!OTL: Vieni candida aurora
!!!OMV: 018
!!!PDT: 1585
!!!AGN:
!!!SMS-siglum: PL-GD
!!!SMS-shelfmark: Ee 2628
!!!SMS-shelfwork: 006-018 G
!!!SMS-variant:
!!!SMS-altvar:
!!!NIFC-rismSourceID: 1001203361
!!!NIFC-rismChildID: 990060530
!!!NIFC-islandoraID: pl-gd:66139
!!!URL-pdf-islandora: https://repozytorium.nifc.pl/islandora/object/pl-gd%3A66139/datastream/PDF/view
!!!URL-scan: https://polish.musicsources.pl/pl/lokalizacje/galeria/klocki-introligatorskie/673 @EN{Scan on Polish Music Sources Website} @PL{Skany w portalu Dziedzictwo Muzyki Polskiej w otwartym dostępie}
!!!ONB-nifc: UWAGA: Canto: s. 90-101, Tenore: s. 246-257, Basso: s. 402-413, Quinto: s. 724-735. Dla głosu Alto proszę skorzystać z https://pbc.gda.pl/dlibra/publication/87582/edition/79411/content, str. 25-48. Uwaga: utwory podzielone wg spisu treści dostępnych na końcu ksiąg – proszę sprawdzać sąsiednie tytuły. Głos Quinto proszę umieszczać wg ambitusu (może się różnić w zależności od utworu).
!!!AIN: 2 alto 1 bass 1 soprn 1 tenor
!!!key: G:mix
**kern	**text	**kern	**text	**kern	**text	**kern	**text	**kern	**text
*part5	*part5	*part4	*part4	*part3	*part3	*part2	*part2	*part1	*part1
*staff5	*staff5	*staff4	*staff4	*staff3	*staff3	*staff2	*staff2	*staff1	*staff1
*I"BASSO	*	*I"TENORE	*	*I"QVINTO	*	*I"ALTO	*	*I"CANTO	*
*I'B	*	*I'T	*	*I'V 5	*	*I'A	*	*I'S	*
*Ibass	*	*Itenor	*	*Ialto	*	*Ialto	*	*Isoprn	*
*ICvox	*	*ICvox	*	*ICvox	*	*ICvox	*	*ICvox	*
*clefF3	*	*clefC3	*	*clefC3	*	*clefC2	*	*clefG2	*
*k[b-]	*	*k[b-]	*	*k[b-]	*	*k[b-]	*	*k[b-]	*
*G:mix	*	*G:mix	*	*G:mix	*	*G:mix	*	*G:mix	*
*M2/1	*	*M2/1	*	*M2/1	*	*M2/1	*	*M2/1	*
*met(C)	*	*met(C)	*	*met(C)	*	*met(C)	*	*met(C)	*
=1-	=1-	=1-	=1-	=1-	=1-	=1-	=1-	=1-	=1-
!LO:TX:t=P:problem=przy kluczu BB- B-	!	!	!	!	!	!	!	!	!
!LO:TX:b:i:t=VIeni candida aurora	!	!	!	!LO:TX:b:i:t=VIeni candida aurora	!	!LO:TX:t=P:problem=przy kluczu B- b-	!	!	!
00r	.	00r	.	00r	.	0r	.	1g	VIe-
.	.	.	.	.	.	.	.	2a/	-ni
.	.	.	.	.	.	.	.	2.b-/	can-
=2-	=2-	=2-	=2-	=2-	=2-	=2-	=2-	=2-	=2-
.	.	.	.	.	.	1d	VIe-	.	.
.	.	.	.	.	.	.	.	4b-/	-di-
.	.	.	.	.	.	.	.	2a/	da_au-
.	.	.	.	.	.	2e/	-ni	1cc	-ro-
.	.	.	.	.	.	2.f\	can-	.	.
=3-	=3-	=3-	=3-	=3-	=3-	=3-	=3-	=3-	=3-
00r	.	1d	VIe-	00r	.	.	.	2a/	-ra
.	.	.	.	.	.	4f\	-di-	.	.
*	*	*	*	*	*	*	*	*	*ij
.	.	.	.	.	.	2f\	da_au-	2a/	VIe-
.	.	2A/	-ni	.	.	2e/	-ro-	2cc#X\	-ni
.	.	2.B-/	can-	.	.	2d/	-ra	2.dd\	can-
=4-	=4-	=4-	=4-	=4-	=4-	=4-	=4-	=4-	=4-
.	.	.	.	.	.	4r	.	.	.
.	.	4B-/	-di-	.	.	2f\	e	4dd\	-di-
!	!	!	!	!	!	!	!	!LO:SIC:v:t=custos cc	!
.	.	2B-/	da_au-	.	.	.	.	2dd\	-da_au-
.	.	.	.	.	.	4g\	di	.	.
!	!	!	!	!	!	!	!	!LO:LB:g=original	!
.	.	1F	-ro-	.	.	4a\	pu-	8ccny\	-ro-
.	.	.	.	.	.	.	.	8b-\	.
.	.	.	.	.	.	8f\	-ra	8a/	.
.	.	.	.	.	.	8g\	ro-	8g/	.
.	.	.	.	.	.	2a\	-gia-	2f/	.
=5-	=5-	=5-	=5-	=5-	=5-	=5-	=5-	=5-	=5-
!	!	!	!	!	!	!LO:SIC:v:t=custos g	!	!	!
00r	.	4c/	-ra	00r	.	2e/	-da	4g/	-ra
*	*	*	*	*	*	*	*	*	*Xij
.	.	2A/	e	.	.	.	.	2cc\	e
!	!	!	!	!	!	!LO:LB:g=original	!	!	!
.	.	.	.	.	.	4r	.	.	.
*	*	*	*	*	*	*	*ij	*	*
.	.	4B-/	di	.	.	2g\	e	4dd\	di
.	.	4c/	pu-	.	.	.	.	4ee\	pu-
.	.	8B-/	-ra	.	.	4b-\	di	8dd\	-ra
!	!	!LO:SIC:v:t=custos d	!	!	!	!	!	!	!
.	.	8c/	ro-	.	.	.	.	8ee\	ro-
!	!	!LO:LB:g=original	!	!	!	!	!	!	!
.	.	1d\	-gia-	.	.	4a\	pu-	1ff\	-gia-
.	.	.	.	.	.	8f\	-ra	.	.
.	.	.	.	.	.	8g\	ro-	.	.
=6-	=6-	=6-	=6-	=6-	=6-	=6-	=6-	=6-	=6-
.	.	.	.	.	.	1a	-gia-	.	.
.	.	1c	-da	.	.	.	.	1ee	-da
.	.	.	.	.	.	1g	-da	.	.
*	*	*	*	*	*	*	*Xij	*	*
.	.	2.B-/	Queſ-	.	.	.	.	2.dd\	Queſ-
=7-	=7-	=7-	=7-	=7-	=7-	=7-	=7-	=7-	=7-
00r	.	.	.	00r	.	2.f\	Queſ-	.	.
!	!	!	!	!	!	!	!	!LO:SIC:v:t=custos dd	!
.	.	4B-/	-ta_e	.	.	.	.	4dd\	ta_e
!	!	!	!	!	!	!	!	!LO:LB:g=original	!
.	.	2B-/	quel-	.	.	.	.	2dd\	quel-
.	.	.	.	.	.	4f\	ta_e	.	.
.	.	4A/	-la	.	.	8f\	quel-	4cc\	-la
.	.	.	.	.	.	8e\	.	.	.
.	.	4B-/	con-	.	.	8d/	.	4dd\	con-
.	.	.	.	.	.	8c/	.	.	.
.	.	2G/	-tra-	.	.	4d/	.	2b-/	-tra-
.	.	.	.	.	.	4e/	-la	.	.
=8-	=8-	=8-	=8-	=8-	=8-	=8-	=8-	=8-	=8-
.	.	4F/	-da	.	.	4f\	con-	4a/	-da
.	.	4G/	Rin-	.	.	4.b-\	-tra-	4g/	Rin-
.	.	2e-X\	-freſ-	.	.	.	.	1gg	-freſ-
.	.	.	.	.	.	8b-\	-da	.	.
.	.	.	.	.	.	4g\	Rin-	.	.
.	.	1d	-ca	.	.	2b-\	-freſ-	.	.
.	.	.	.	.	.	2a\	-ca	2ff#X\	-ca
=9-	=9-	=9-	=9-	=9-	=9-	=9-	=9-	=9-	=9-
00r	.	2r	.	00r	.	4r	.	2r	.
.	.	.	.	.	.	2a\	e	.	.
!	!	!LO:SIC:v:t=custos f	!	!	!	!	!	!	!
.	.	2d\	e	.	.	.	.	2dd\	e
.	.	.	.	.	.	2b-\	fa	.	.
!	!	!LO:LB:g=original	!	!	!	!	!	!	!
.	.	2f\	fa	.	.	.	.	2cc\	fa
!	!	!	!	!	!	!LO:SIC:v:t=custos g	!	!	!
.	.	.	.	.	.	4a\	tra	.	.
!	!	!	!	!	!	!LO:LB:g=original	!	!	!
.	.	2eny\	tra	.	.	2g\	noi	2cc\	tra
=10-	=10-	=10-	=10-	=10-	=10-	=10-	=10-	=10-	=10-
.	.	2d\	noi	.	.	2f#X\	dol-	2dd\	noi
.	.	2.e-X\	dol-	.	.	2.g\	-ce	2.b-/	dol-
.	.	4f\	-ce	.	.	4a\	di-	4a/	-ce
.	.	2g\	di-	.	.	2b-\	-mo-	2g/	di-
=11-	=11-	=11-	=11-	=11-	=11-	=11-	=11-	=11-	=11-
1r	.	1d	-mo-	1r	.	1a	-ra	4.f#X/	-mo-
.	.	.	.	.	.	.	.	8e/	.
.	.	.	.	.	.	.	.	2f#X/	.
!	!	!	!	!	!	!	!	!LO:SIC:v:t=custos gg	!
2r	.	2G/	-ra	4r	.	1r	.	2g/	-ra
.	.	.	.	2d\	O	.	.	.	.
!	!	!LO:N:acc=#	!	!	!	!	!	!LO:LB:g=original	!
2G\	O	2Bn/	O	.	.	.	.	4r	.
.	.	.	.	2G/	dea	.	.	4gg\	O
=12-	=12-	=12-	=12-	=12-	=12-	=12-	=12-	=12-	=12-
2C/	dea	4c/	dea	.	.	4r	.	2ee\	dea
.	.	4G/	cui_il	2c/	cui_il	4cc\	O	.	.
2F/	cui_il	4A/	mon-	.	.	4.a\	dea	2ffny\	cui_il
.	.	4c/	do_ho-	2A/	mo(n)-	.	.	.	.
.	.	.	.	.	.	8a\	cui_il	.	.
4D/	mon-	1d	-no-	.	.	4a\	mo(n)-	4ff\	mon-
!LO:SIC:v:t=custos D	!	!	!	!LO:SIC:v:t=custos A	!	!	!	!	!
4G\	-d'_ho-	.	.	4B-/	-d'_ho-	4g\	-d'_ho-	4dd\	-d'_ho-
!LO:LB:g=original	!	!	!	!LO:LB:g=original	!	!	!	!	!
2D/	-no-	.	.	2A/	-no-	2f#X\	-no-	2dd\	-no-
=13-	=13-	=13-	=13-	=13-	=13-	=13-	=13-	=13-	=13-
!	!	!	!	!	!	!	!	!LO:N:acc=#	!
2G\	-ra	2d\	-ra	2G/	-ra	2g\	-ra	1bn	-ra
2G\	Che	2d\	Che	4r	.	2g\	Che	.	.
.	.	.	.	4G/	Che	.	.	.	.
2F/	por-	2f\	por-	2c/	por-	2.a\	por-	1r	.
2D/	-ti	2f\	-ti	2d\	-ti	.	.	.	.
.	.	.	.	.	.	4b-\	-ti	.	.
=14-	=14-	=14-	=14-	=14-	=14-	=14-	=14-	=14-	=14-
!	!	!LO:SIC:v:t=custos e	!	!	!	!	!	!	!
2F/	te-	2f\	te-	2c/	te-	2a\	te-	0r	.
!	!	!LO:LB:g=original	!	!	!	!	!	!	!
2C/	-co	2eny\	-co	2c/	-co	2.g\	-co	.	.
2G\	nel-	4d\	nel-	8B-/	nel-	.	.	.	.
.	.	.	.	8c/	.	.	.	.	.
.	.	8B-y/	-la	8d\	.	2b-\	nel-	.	.
.	.	8c/	.	8e\	.	.	.	.	.
2D/	-la	8d\	.	4f\	.	.	.	.	.
.	.	8e\	.	.	.	.	.	.	.
!	!	!	!	!LO:SIC:v:t=custos c	!	!	!	!	!
.	.	2f\	.	4d\	-la	2a\	-la	.	.
!	!	!	!	!LO:LB:g=original	!	!	!	!	!
=15-	=15-	=15-	=15-	=15-	=15-	=15-	=15-	=15-	=15-
4F/	fron-	.	.	4c/	fron-	.	.	1r	.
4G\	te_il	2d\	fron-	4B-/	te_il	2g\	fron-	.	.
!LO:SIC:v:t=custos G	!	!	!	!	!	!	!	!	!
2A\	gior-	.	.	2c/	gior-	.	.	.	.
!	!	!	!	!	!	!LO:SIC:v:t=custos g	!	!	!
.	.	2c/	te_il	.	.	4fny\	te_il	.	.
!LO:LB:g=original	!	!	!	!	!	!LO:LB:g=original	!	!	!
1G	-no	.	.	1d	-no	1g	gior-	2r	.
!	!	!LO:N:acc=#	!	!	!	!	!	!	!
.	.	8Bn/	gior-	.	.	.	.	.	.
.	.	8A/	.	.	.	.	.	.	.
!	!	!LO:N:acc=#	!	!	!	!	!	!	!
.	.	2Bn/	.	.	.	.	.	2dd\	O
=16-	=16-	=16-	=16-	=16-	=16-	=16-	=16-	=16-	=16-
1r	.	2c/	-no	1r	.	1g	-no	1ee	dea
.	.	2c/	O	.	.	.	.	.	.
1F	O	4A/	dea	4r	.	4r	.	2r	.
.	.	4a\	O	4c/	O	2cc\	O	.	.
.	.	4f\	dea	4A/	dea	.	.	2ff\	O
.	.	4f\	cui_il	4c/	cui_il	4a\	dea	.	.
=17-	=17-	=17-	=17-	=17-	=17-	=17-	=17-	=17-	=17-
2C/	dea	8g\	mon-	4.c/	mon-	4r	.	2ee\	dea
.	.	8f\	.	.	.	.	.	.	.
.	.	8e\	.	.	.	4cc\	cui_il	.	.
!	!	!LO:SIC:v:t=custos c	!	!	!	!	!	!	!
.	.	8d\	.	8B-/	.	.	.	.	.
!	!	!LO:LB:g=original	!	!	!	!	!	!	!
2F/	cui_il	4c/	.	8A/	.	8cc\	mon-	2ff\	cui_il
.	.	.	.	8G/	.	8b-\	.	.	.
.	.	4c/	do_ho-	2A/	.	8a\	.	.	.
.	.	.	.	.	.	8g\	.	.	.
4D/	mon-	1d	-no-	.	.	4f\	.	4ff\	mon-
4G\	do_ho-	.	.	4B-/	do_ho-	4g\	do_ho-	4dd\	do_ho-
2D/	-no-	.	.	2A/	-no-	2f#X\	-no-	2dd\	-no-
=18-	=18-	=18-	=18-	=18-	=18-	=18-	=18-	=18-	=18-
!	!	!	!	!	!	!	!	!LO:SIC:v:t=custos dd	!
!	!	!	!	!	!	!	!	!LO:N:acc=#	!
1G	-ra	2d\	-ra	2G/	-ra	2g\	-ra	2bn/	-ra
!	!	!	!	!	!	!LO:N:acc=#	!	!LO:LB:g=original	!
.	.	2G/	Che	2g\	Che	2bn\	Che	2dd\	Che
1r	.	2c/	por-	2g\	por-	2cc\	por-	2.ee\	por-
!	!	!	!	!LO:SIC:v:t=custos g	!	!	!	!	!
.	.	2A/	-ti	2a\	-ti	2cc\	-ti	.	.
.	.	.	.	.	.	.	.	4ff\	-ti
!	!	!	!	!LO:LB:g=original	!	!	!	!	!
=19-	=19-	=19-	=19-	=19-	=19-	=19-	=19-	=19-	=19-
0r	.	2c/	te-	4g\	te-	4cc\	te-	2ee\	te-
.	.	.	.	4e\	-co	4c/	-co	.	.
.	.	2B-y/	-co	4f\	nel-	4d/	nel-	2dd\	-co
!	!	!	!	!	!	!LO:SIC:v:t=custos f	!	!	!
.	.	.	.	4g\	-la	4e/	-la	.	.
!	!	!	!	!	!	!LO:LB:g=original	!	!	!
.	.	4A/	nel-	2.a\	fron-	4.fny\	fron-	2.cc\	nel-
.	.	4F/	-la	.	.	.	.	.	.
.	.	.	.	.	.	8f\	te_il	.	.
.	.	4A/	fron-	.	.	4f\	gior-	.	.
.	.	4B-/	te_il	8g\	.	4d/	-no	4dd\	-la
.	.	.	.	8f\	.	.	.	.	.
=20-	=20-	=20-	=20-	=20-	=20-	=20-	=20-	=20-	=20-
2r	.	2c/	gior-	4e\	.	2r	.	4.cc\	fron-
.	.	.	.	4g\	te_il	.	.	.	.
.	.	.	.	.	.	.	.	8b-/	te_il
2D/	e'l	4d\	-no	2f#X\	gior-	4r	.	2a/	gior-
.	.	4d\	e'l	.	.	4a\	e'l	.	.
2.G\	ciel	2d\	ciel	1g	-no	2.b-\	ciel	1g	-no
.	.	4d\	bian-	.	.	.	.	.	.
4E/	bian-	2c/	-co_e	.	.	4cc\	bian-	.	.
=21-	=21-	=21-	=21-	=21-	=21-	=21-	=21-	=21-	=21-
4F#X/	-co_e	.	.	4r	.	4a\	-co_e	4r	.
!	!	!LO:SIC:v:t=custos c	!	!	!	!	!	!	!
!	!	!LO:N:acc=#	!	!	!	!	!	!	!
4G\	ver-	4Bn/	ver-	4G/	e'l	4g\	ver-	4dd\	e'l
!	!	!LO:LB:g=original	!	!	!	!	!	!	!
2C/	-mi-	4c/	-mi-	2.c/	ciel	2g\	-mi-	2.ee\	ciel
.	.	4G/	-glio	.	.	.	.	.	.
!LO:SIC:v:t=custos C	!	!	!	!	!	!	!	!	!
2C/	-glio	2r	.	.	.	4g\	-glio	.	.
.	.	.	.	4A/	bian-	4a\	bian-	4cc\	bian-
!LO:LB:g=original	!	!	!	!	!	!	!	!	!
4r	.	4r	.	4B-/	-co_e	4g\	-co_e	4dd\	-co_e
*	*ij	*	*ij	*	*	*	*	*	*
4C/	e'l	4g\	el	4c/	ver-	4g\	ver-	4ee\	ver-
=22-	=22-	=22-	=22-	=22-	=22-	=22-	=22-	=22-	=22-
2.F/	ciel	2.a\	ciel	2A/	-mi-	2f\	-mi-	2ff\	-mi-
.	.	.	.	4F/	-glio	4f\	-glio	2ff\	-glio
*	*	*	*	*	*	*	*ij	*	*
!	!	!	!	!LO:SIC:v:t=custos c	!	!	!	!	!
4D/	bian-	4f\	bian-	4F/	bian-	4a\	bian-	.	.
!	!	!	!	!LO:LB:g=original	!	!	!	!LO:SIC:v:t=custos dd	!
4E/	-co_e	4g\	-co_e	4c/	-co_e	4g\	-co_e	1r	.
4F/	ver-	4a\	ver-	4c/	ver-	4f\	ver-	.	.
!	!	!	!	!	!	!LO:SIC:v:t=custos d	!	!	!
2BB-/	-mi-	2f\	-mi-	2B-/	-mi-	2d/	-mi-	.	.
!	!	!	!	!	!	!LO:LB:g=original	!	!LO:LB:g=original	!
=23-	=23-	=23-	=23-	=23-	=23-	=23-	=23-	=23-	=23-
2BB-/	-glio	2f\	-glio	2B-/	-glio	2d/	-glio	2r	.
*	*Xij	*	*Xij	*	*	*	*Xij	*	*
2B-\	Fai	2f\	Fai	2d\	Fai	4r	.	2dd\	Fai
.	.	.	.	.	.	4b-\	Fai	.	.
2G\	col	2g\	col	2d\	col	2b-\	col	2dd\	col
4G\	ſe-	4d\	ſe-	4B-/	ſe-	4g\	ſe-	4dd\	ſe-
2D/	-re-	2f#X\	-re-	2A/	-re-	2a\	-re-	2dd\	-re-
=24-	=24-	=24-	=24-	=24-	=24-	=24-	=24-	=24-	=24-
.	.	.	.	.	.	.	.	.	.
4D/	-no	4f#X\	-no	4A/	-no	4a\	-no	4dd\	-no
!	!	!	!	!	!	!LO:N:acc=#	!	!	!
2G\	tuo	2g\	tuo	2G/	tuo	2bn\	tuo	2dd\	tuo
4C/	tran-	4g\	tran-	4G/	tran-	4cc\	tran-	4ee\	tran-
2F/	-quil-	2c/	-quil-	2A/	-quil-	2a\	-quil-	2ff\	-quil-
4D/	-lo	4d\	-lo	4d\	-lo	4a\	-lo	4ff\	-lo
=25-	=25-	=25-	=25-	=25-	=25-	=25-	=25-	=25-	=25-
!	!	!LO:SIC:v:t=custos f#	!	!	!	!	!	!	!
2A\	ci-	2e\	ci-	2c#X/	ci-	2a\	ci-	2ee\	ci-
!LO:SIC:v:t=custos D	!	!LO:LB:g=original	!	!	!	!	!	!	!
2D/	-glio	2f#X\	-glio	2d\	-glio	2a\	-glio	2dd\	-glio
!LO:LB:g=original	!	!	!	!	!	!	!	!	!
0r	.	1r	.	4A/	Ve-	4a\	Ve-	1r	.
.	.	.	.	8A/	-di	8a\	-di	.	.
.	.	.	.	8A/	che	8a\	che	.	.
.	.	.	.	4B-/	d'ogn'-	4g\	d'ogn'-	.	.
!	!	!	!	!LO:SIC:v:t=custos d	!	!	!	!	!
.	.	.	.	4cny/	-in-	4e/	-in-	.	.
!	!	!	!	!LO:LB:g=original	!	!	!	!	!
=26-	=26-	=26-	=26-	=26-	=26-	=26-	=26-	=26-	=26-
.	.	4d\	Ve-	2d\	-tor-	4.f\	-tor-	4dd\	Ve-
.	.	8d\	-di	.	.	.	.	8dd\	-di
.	.	8d\	che	.	.	8g\	.	8dd\	che
.	.	4e\	d'ogn'-	2A/	-no	8a\	.	4.cc\	d'ogn'-
.	.	.	.	.	.	8b-y\	.	.	.
.	.	4fny\	-in-	.	.	2a\	.	.	.
.	.	.	.	.	.	.	.	8a/	-in-
!	!	!	!	!	!	!	!	!LO:SIC:v:t=custos a	!
2r	.	2g\	-tor-	2r	.	.	.	2b-/	-tor-
!	!	!	!	!	!	!LO:SIC:v:t=custos a	!	!LO:LB:g=original	!
.	.	.	.	.	.	4g\	.	.	.
*	*	*	*	*	*ij	*	*	*	*
!	!	!	!	!	!	!LO:LB:g=original	!	!	!
4D/	Ve-	2f\	-no	4d\	Ve-	4a\	-no	4a/	.
8D/	-di	.	.	8d\	-di	4f\	che	4.b-/	.
8D/	che	.	.	8d\	che	.	.	.	.
=27-	=27-	=27-	=27-	=27-	=27-	=27-	=27-	=27-	=27-
4E/	d'ogn'-	1r	.	4c/	d'ogn'-	4g\	d'ogn'-	.	.
.	.	.	.	.	.	.	.	8a/	.
4F/	-in-	.	.	4A/	-in-	4f\	-in-	2a/	.
2G\	-tor-	.	.	2B-/	-tor-	2d/	-tor-	.	.
.	.	.	.	.	.	.	.	4g/	.
*	*	*	*ij	*	*	*	*	*	*
2D/	-no	4f\	Ve-	1A	-no	2d/	-no	2a/	-no
*	*	*	*	*	*Xij	*	*	*	*
.	.	8f\	-di	.	.	.	.	.	.
.	.	8f\	che	.	.	.	.	.	.
2r	.	4e\	d'ogn'-	.	.	4a\	Ve-	2r	.
.	.	4c\	-in-	.	.	8a\	-di	.	.
.	.	.	.	.	.	8a\	che	.	.
=28-	=28-	=28-	=28-	=28-	=28-	=28-	=28-	=28-	=28-
*	*ij	*	*	*	*	*	*	*	*
4d\	Ve-	4d\	-tor-	1r	.	4f\	d'ogn'-	4ff\	Ve-
8d\	-di	4B-y/	-no	.	.	4.b-\	-in-	8ff\	-di
*	*	*	*Xij	*	*	*	*	*	*
8d\	che	.	.	.	.	.	.	8ff\	che
4c\	d'ogn-	2r	.	.	.	.	.	4ee\	d'ogn'-
.	.	.	.	.	.	8a\	-tor-	.	.
4A\	-in-	.	.	.	.	2a\	.	4cc\	-in-
2B-\	-tor-	0r	.	4d\	Ve-	.	.	2dd\	-tor-
.	.	.	.	8d\	-di	4g\	.	.	.
.	.	.	.	8d\	che	.	.	.	.
2A\	-no	.	.	4e\	d'ogn'-	4a\	-no	4cc\	-no
*	*Xij	*	*	*	*	*	*	*	*
.	.	.	.	4fny\	-in-	2a\	d'ogn'-	4cc\	che
=29-	=29-	=29-	=29-	=29-	=29-	=29-	=29-	=29-	=29-
00r	.	.	.	2g\	-tor-	.	.	4b-/	d'ogn'-
.	.	.	.	.	.	4g\	-in-	4b-/	-in-
.	.	.	.	2d\	-no	2f#X\	-tor-	2a/	-tor-
.	.	2r	.	2r	.	2g\	-no	2g/	-no
!	!	!	!	!	!	!	!	!LO:SIC:v:t=custos b	!
!	!	!	!	!	!	!LO:SIC:v:t=custos g	!	!LO:N:acc=#	!
.	.	2G/	Ho-	2d\	Ho-	2g\	Ho-	2bn/	Ho-
!	!	!	!	!	!	!LO:LB:g=original	!	!LO:LB:g=original	!
=30-	=30-	=30-	=30-	=30-	=30-	=30-	=30-	=30-	=30-
.	.	4.G/	-no-	4.d\	-no-	4.g\	-no-	4.bny/	-no-
!	!	!LO:SIC:v:t=custos F	!	!LO:SIC:v:t=custos f	!	!	!	!	!
.	.	8G/	-ra-	8d\	-ra-	8g\	-ra-	8b/	-ra-
!	!	!LO:LB:g=original	!	!LO:LB:g=original	!	!	!	!	!
.	.	4F/	-no_i	4f\	-no_i	4a\	-no_i	4cc\	-no_i
.	.	4F/	mor-	4f\	mor-	4a\	mor-	4cc\	mor-
.	.	2.B-/	-ta-	2f\	-ta-	2.b-\	-ta-	2dd\	-ta-
.	.	.	.	2d\	-li	.	.	2ff\	-li_il
.	.	4B-/	-li_il	.	.	4b-\	-li_il	.	.
=31-	=31-	=31-	=31-	=31-	=31-	=31-	=31-	=31-	=31-
2r	.	4c/	tuo	2r	.	4g\	tuo	4ee\	tuo
.	.	4e-X\	ri-	.	.	4g\	ri-	4gg\	ri-
!LO:SIC:v:t=custos G	!	!	!	!	!	!	!	!	!
2D/	Ho-	2d\	-tor-	2A/	Ho-	2a\	-tor-	2ff#X\	-tor-
!LO:LB:g=original	!	!	!	!LO:N:acc=#	!	!	!	!	!
2.G\	-no-	2d\	-no	2.Bn/	-no-	4g\	-no	1gg	-no
.	.	.	.	.	.	4g\	Ho-	.	.
*	*	*	*ij	*	*	*	*	*	*
.	.	2d\	Ho-	.	.	2.g\	-no-	.	.
4G\	-ra-	.	.	4B/	-ra-	.	.	.	.
=32-	=32-	=32-	=32-	=32-	=32-	=32-	=32-	=32-	=32-
2G\	-no_i	4.d\	-no-	2Bny/	-no_i	.	.	1r	.
.	.	.	.	.	.	4g\	-ra-	.	.
.	.	8d\	-ra-	.	.	.	.	.	.
2F\	mor-	4f\	-no_i	2c/	mor-	4a\	-no_i	.	.
.	.	4f\	mor-	.	.	4a\	mor-	.	.
2E-X/	-ta-	2g\	-ta-	2e-X\	-ta-	2.b-\	-ta-	2r	.
2BB-/	-li_il	4f\	-li_il	2d\	-li_il	.	.	2ffny\	il
.	.	2f\	tuo	.	.	4b-\	-li_il	.	.
=33-	=33-	=33-	=33-	=33-	=33-	=33-	=33-	=33-	=33-
2F/	tuo	.	.	2.c/	tuo	2a\	tuo	2ff\	tuo
.	.	4F/	ri-	.	.	.	.	.	.
2C/	ri-	2G/	-tor-	.	.	1g	ri-	2ee-X\	ri-
.	.	.	.	4B-y/	ri-	.	.	.	.
1D	-tor-	[1dl	-no	1A	-tor-	.	.	1dd	-tor-
*	*	*	*Xij	*	*	*	*	*	*
.	.	.	.	.	.	2f#X\	-tor-	.	.
=34-	=34-	=34-	=34-	=34-	=34-	=34-	=34-	=34-	=34-
!	!	!	!	!	!	!	!	!LO:N:acc=#	!
0Gl	-no.	0d]	.	0Gl	-no.	0gl	-no.	0bnl/	-no.
==	==	==	==	==	==	==	==	==	==
*-	*-	*-	*-	*-	*-	*-	*-	*-	*-
!!!system-decoration: [(*)]
!!!RDF**kern: l = terminal long
!!!ENC: Mateusz Solarz
!!!END: 2022-07-11
!!!ENC: Andrzej Kubiczek
!!!END: 2022-08-08
!!!YEC: Copyright 2022 Narodowy Instytut Fryderyka Chopina (https://polishscores.org)
!!!YEM: License CC-BY-4.0 (https://creativecommons.org/licenses/by/4.0)
